src/icons/solid/navigation/arrow-left.svg

<svg width="24" height="24" viewBox="0 0 24 24" fill="none" xmlns="http://www.w3.org/2000/svg">
<g clip-path="url(#clip0_4191_778)">
<path d="M11.78 1.32877L1.73333 10.305C1.29386 10.7409 1.03207 11.3286 1 11.9514C1.03207 12.5742 1.29386 13.1619 1.73333 13.5978L11.8167 22.5741C11.9399 22.7107 12.0903 22.8192 12.2578 22.8926C12.4254 22.966 12.6064 23.0026 12.7889 22.9999C12.9714 22.9972 13.1512 22.9553 13.3166 22.8769C13.482 22.7986 13.6292 22.6857 13.7484 22.5455C13.8677 22.4053 13.9563 22.241 14.0085 22.0636C14.0607 21.8861 14.0753 21.6994 14.0513 21.5158C14.0273 21.3323 13.9652 21.1559 13.8692 20.9984C13.7731 20.8409 13.6453 20.7058 13.4942 20.6021L5.73917 13.6722C5.70325 13.6409 5.6778 13.599 5.6663 13.5524C5.65481 13.5057 5.65785 13.4566 5.675 13.4118C5.69148 13.3685 5.72036 13.3311 5.75794 13.3046C5.79552 13.2781 5.84006 13.2636 5.88583 13.263L21.7075 13.263C21.8772 13.263 22.0453 13.229 22.2021 13.1631C22.3589 13.0972 22.5014 13.0006 22.6214 12.8788C22.7415 12.757 22.8367 12.6124 22.9016 12.4533C22.9666 12.2942 23 12.1236 23 11.9514C23 11.7792 22.9666 11.6086 22.9016 11.4495C22.8367 11.2904 22.7415 11.1458 22.6214 11.024C22.5014 10.9022 22.3589 10.8056 22.2021 10.7397C22.0453 10.6738 21.8772 10.6399 21.7075 10.6399L5.88583 10.6399C5.84006 10.6393 5.79552 10.6248 5.75794 10.5982C5.72036 10.5717 5.69148 10.5344 5.675 10.491C5.65785 10.4462 5.65481 10.3971 5.6663 10.3505C5.6778 10.3038 5.70325 10.2619 5.73917 10.2306L13.4942 3.30075C13.6218 3.18653 13.726 3.04794 13.8008 2.89286C13.8756 2.7378 13.9196 2.56929 13.9302 2.39697C13.9408 2.22465 13.9179 2.0519 13.8628 1.88857C13.8076 1.72523 13.7213 1.57452 13.6088 1.44504C13.4962 1.31556 13.3596 1.20984 13.2068 1.13392C13.054 1.058 12.8879 1.01337 12.7181 1.00257C12.5483 0.991776 12.378 1.01503 12.2171 1.07099C12.0561 1.12696 11.9076 1.21455 11.78 1.32877Z" fill="#3C3B44"/>
</g>
<defs>
<clipPath id="clip0_4191_778">
<rect width="24" height="24" fill="white"/>
</clipPath>
</defs>
</svg>

<svg xmlns="http://www.w3.org/2000/svg" width="24" height="24" fill="none" viewBox="0 0 24 24"><g clip-path="url(#a)"><path fill="currentColor" d="M11.78 1.329 1.733 10.305A2.5 2.5 0 0 0 1 11.951a2.5 2.5 0 0 0 .733 1.647l10.084 8.976a1.3 1.3 0 0 0 .972.426 1.28 1.28 0 0 0 .96-.454 1.32 1.32 0 0 0 .302-1.03 1.32 1.32 0 0 0-.557-.914l-7.755-6.93a.23.23 0 0 1-.064-.26.23.23 0 0 1 .21-.149h15.823a1.28 1.28 0 0 0 .913-.384A1.3 1.3 0 0 0 23 11.95a1.33 1.33 0 0 0-.379-.927 1.3 1.3 0 0 0-.913-.384H5.886a.23.23 0 0 1-.211-.149.24.24 0 0 1 .064-.26l7.755-6.93a1.3 1.3 0 0 0 .436-.904 1.34 1.34 0 0 0-.321-.952 1.3 1.3 0 0 0-.89-.442 1.28 1.28 0 0 0-.939.326"/></g><defs><clipPath id="a"><path fill="currentColor" d="M0 0h24v24H0z"/></clipPath></defs></svg>
